images/sale__7.svg

<svg width="80" height="80" viewBox="0 0 80 80" fill="none" xmlns="http://www.w3.org/2000/svg">
<circle cx="40" cy="40" r="40" fill="white"/>
<path d="M26.0976 71C25.856 71 25.5923 70.7339 25.5704 70.6231C25.131 64.6369 25.109 59.4711 25.4605 54.8374C25.8999 49.1616 26.9544 44.3061 28.668 39.8276C28.7559 39.6059 28.7998 39.3398 28.8877 39.1403C29.3271 38.0317 29.8324 36.9454 30.3596 35.8812C30.9089 34.7283 31.4581 33.7749 32.2929 32.3781L32.4027 32.2008L32.3368 31.8017C32.0512 30.3162 31.7656 28.7643 31.3482 27.2123C31.0187 25.9264 30.7111 24.7513 30.2717 23.7315L29.9422 22.9777L29.8543 23.798C29.7445 24.707 29.7225 25.483 29.7006 26.1481C29.7006 26.4142 29.6786 26.658 29.6566 26.9019C29.6566 27.0349 29.6346 27.1458 29.6346 27.2345C29.6127 27.3453 29.6127 27.434 29.6127 27.5449C29.6127 27.7222 29.4369 27.8109 29.3051 27.8109L23.2636 27.7666C23.1758 27.7444 23.0879 27.7001 23.0439 27.6336C23.022 27.6114 23 27.5449 23 27.4784C23.5053 22.5342 23.9227 18.6321 24.5598 16.0381C25.131 13.422 26.0098 11.8922 27.284 11.2049C28.1627 10.6949 29.0854 10.2515 30.096 9.83026C30.9528 9.43118 31.9414 9.00993 33.1497 8.56651C33.1936 8.56651 33.2376 8.54434 33.2595 8.52217C33.3694 8.52217 33.4792 8.56651 33.5012 8.69954C33.7868 10.1185 34.6436 11.4709 35.9178 12.4908C37.1261 13.4441 38.6419 13.9762 40.2018 13.9762C41.7396 13.9762 43.2115 13.4663 44.4857 12.4908C45.716 11.5153 46.6167 10.1628 47.0122 8.72171V8.69954C47.0341 8.56651 47.144 8.5 47.2318 8.5L47.3637 8.56651C48.3303 8.92125 49.4068 9.36467 50.4393 9.85243C51.3181 10.2293 52.2628 10.6949 53.2074 11.227C54.4816 11.9587 55.2945 13.422 55.9316 16.0603C56.5247 18.61 56.9641 22.3125 57.4914 27.4784C57.5134 27.567 57.4914 27.6557 57.4474 27.7001C57.4035 27.7444 57.3376 27.7666 57.2717 27.7666L51.2082 27.8109C51.0545 27.8109 50.9007 27.7222 50.9007 27.5449C50.9007 27.4784 50.9007 27.3897 50.8787 27.2788C50.8567 27.168 50.8567 27.0349 50.8567 26.9019L50.8348 26.525C50.7908 25.7269 50.7469 24.84 50.659 23.7536L50.5931 22.9111L50.2416 23.6871C49.6924 24.9065 49.3409 26.1038 49.0553 27.2345C48.6379 28.7864 48.3523 30.3162 48.0667 31.8239L48.0008 32.1786L48.0447 32.2451C48.7697 33.4202 49.4068 34.6618 50.0439 35.8812C50.7249 37.2558 51.2741 38.6747 51.6916 39.7611C53.3392 44.1509 54.3718 49.0951 54.8551 54.8595C55.2066 59.4933 55.1627 64.5261 54.7013 70.6674C54.6793 70.7561 54.6134 70.9557 54.3718 70.9557H26.0976V71ZM32.8861 32.5555C32.0293 33.9301 31.3702 35.083 30.821 36.2137C30.2278 37.4996 29.6786 38.8077 29.1513 40.0493V40.0715C27.5037 44.417 26.4931 49.2946 26.0537 54.9925C25.7022 59.4711 25.7461 64.3044 26.2075 70.224L26.2294 70.4236H54.0642L54.0862 70.224C54.5256 64.3709 54.5915 59.3824 54.24 54.9925C53.8226 49.4055 52.812 44.5279 51.1423 40.0715C50.5931 38.6304 50.0439 37.3666 49.4727 36.1916C48.9235 34.9943 48.2644 33.8193 47.4076 32.5333C47.3856 32.4668 47.3637 32.4003 47.3856 32.3116V32.2895V32.2673C47.6712 30.6045 47.9788 28.9195 48.4182 27.1458C48.8136 25.7047 49.4068 23.8201 50.3514 21.9134V21.8913V21.8691C50.3734 21.8026 50.4613 21.7582 50.5931 21.7139C50.5931 21.7139 50.6151 21.7139 50.637 21.7139C50.7908 21.7139 50.9007 21.8248 50.9226 21.9356C51.2522 23.9753 51.2961 25.4165 51.362 26.7024V26.8354V27.1901L56.8103 27.1458L56.7884 26.9019C56.2611 22.0686 55.8657 18.5656 55.3164 16.1268C54.7892 13.7767 54.0203 12.3799 52.8779 11.6483C52.109 11.2049 51.2082 10.7836 50.1537 10.2958C49.1871 9.85243 48.3742 9.51986 47.6053 9.25381L47.4076 9.1873L47.3417 9.38684C46.8364 10.7614 45.9576 12.003 44.7713 12.9342C43.5191 13.9319 41.8714 14.5083 40.2237 14.5083C38.5541 14.5083 36.9943 13.9762 35.6102 12.9342C34.4239 12.0252 33.5232 10.7614 33.0398 9.38684L32.9739 9.16513L32.7543 9.25381C32.3368 9.40901 31.8755 9.60855 31.4141 9.80809C31.0187 9.96328 30.6233 10.1407 30.2058 10.2958C29.393 10.6062 28.5142 11.0275 27.4817 11.6483C26.3393 12.2691 25.5923 13.6658 25.0212 16.1268C24.4719 18.5656 24.0985 22.0686 23.5492 26.9019L23.5273 27.1458L28.9756 27.1901V26.8132C29.0195 25.7047 29.1074 24.1305 29.415 21.9134C29.4369 21.8026 29.5028 21.6917 29.6346 21.6917C29.6566 21.6917 29.6786 21.6917 29.7225 21.7139C29.7884 21.7361 29.9202 21.7804 29.9862 21.9134C30.777 23.4432 31.3922 25.1061 31.9194 27.1236C32.4467 28.986 32.7323 30.7597 32.952 32.223V32.2451V32.2673C32.952 32.4225 32.93 32.5112 32.8861 32.5555Z" fill="#010066" stroke="#010066" stroke-width="0.5" stroke-miterlimit="10"/>
</svg>

<svg width="80" height="80" fill="none" xmlns="http://www.w3.org/2000/svg"><circle cx="40" cy="40" r="40" fill="#fff"/><path d="M26.098 71c-.242 0-.506-.266-.528-.377-.439-5.986-.461-11.152-.11-15.786.44-5.675 1.494-10.53 3.208-15.01.088-.221.132-.487.22-.687.44-1.108.944-2.195 1.472-3.259.549-1.153 1.098-2.106 1.933-3.503l.11-.177-.066-.4c-.286-1.485-.571-3.037-.989-4.589-.33-1.286-.637-2.46-1.076-3.48l-.33-.754-.088.82c-.11.909-.131 1.685-.153 2.35 0 .266-.022.51-.044.754 0 .133-.022.244-.022.332-.022.111-.022.2-.022.31 0 .178-.176.267-.308.267l-6.041-.044c-.088-.023-.176-.067-.22-.133-.022-.023-.044-.09-.044-.156.505-4.944.923-8.846 1.56-11.44.571-2.616 1.45-4.146 2.724-4.833.879-.51 1.801-.954 2.812-1.375.857-.399 1.845-.82 3.054-1.263a.167.167 0 0 0 .11-.045c.11 0 .22.045.241.178.286 1.418 1.143 2.77 2.417 3.79a6.936 6.936 0 0 0 4.284 1.486c1.538 0 3.01-.51 4.284-1.485 1.23-.976 2.13-2.328 2.526-3.77V8.7a.23.23 0 0 1 .22-.2l.132.067c.966.354 2.043.798 3.075 1.285a29 29 0 0 1 2.768 1.375c1.275.732 2.087 2.195 2.725 4.833.593 2.55 1.032 6.253 1.56 11.418.021.089 0 .178-.045.222a.248.248 0 0 1-.175.067l-6.064.044c-.154 0-.307-.089-.307-.266 0-.067 0-.155-.022-.266-.022-.111-.022-.244-.022-.377l-.022-.377c-.044-.798-.088-1.685-.176-2.771l-.066-.843-.351.776c-.55 1.22-.901 2.417-1.187 3.547-.417 1.552-.703 3.082-.988 4.59l-.066.355.044.066c.725 1.175 1.362 2.417 1.999 3.636.68 1.375 1.23 2.794 1.648 3.88 1.647 4.39 2.68 9.334 3.163 15.098.352 4.634.308 9.667-.154 15.808-.022.09-.088.289-.33.289H26.099V71Zm6.788-38.444c-.857 1.374-1.516 2.527-2.065 3.658-.593 1.286-1.142 2.594-1.67 3.835v.023c-1.647 4.345-2.658 9.223-3.097 14.92-.352 4.48-.308 9.312.154 15.232l.021.2h27.835l.022-.2c.44-5.853.506-10.842.154-15.232-.417-5.586-1.428-10.464-3.098-14.92a47.369 47.369 0 0 0-1.67-3.88 26.23 26.23 0 0 0-2.064-3.659.368.368 0 0 1-.022-.221v-.045c.285-1.663.593-3.348 1.032-5.121.396-1.441.989-3.326 1.933-5.233v-.044c.022-.066.11-.11.242-.155h.044a.29.29 0 0 1 .286.222c.33 2.04.373 3.48.439 4.766v.488l5.448-.044-.022-.244c-.527-4.833-.922-8.336-1.472-10.775-.527-2.35-1.296-3.747-2.438-4.479-.769-.443-1.67-.864-2.724-1.352a28.178 28.178 0 0 0-2.549-1.042l-.197-.067-.066.2a8.034 8.034 0 0 1-2.57 3.547c-1.253.998-2.9 1.574-4.548 1.574-1.67 0-3.23-.532-4.614-1.574a7.752 7.752 0 0 1-2.57-3.547l-.066-.222-.22.089c-.417.155-.878.355-1.34.554-.395.155-.79.333-1.208.488-.813.31-1.692.732-2.724 1.352-1.143.621-1.89 2.018-2.46 4.479-.55 2.439-.923 5.942-1.473 10.775l-.022.244 5.449.044v-.377c.044-1.108.131-2.682.439-4.9.022-.11.088-.221.22-.221.022 0 .044 0 .087.022.066.022.198.066.264.2.791 1.53 1.406 3.192 1.933 5.21.528 1.862.813 3.636 1.033 5.099v.044c0 .155-.022.244-.066.288Z" fill="#010066" stroke="#010066" stroke-width=".5" stroke-miterlimit="10"/></svg>
